X:214
T:B214-  I live not where I love
S:(3rd/3)
Q:1/4=120
L:1/4
M:3/2
K:G
ddB|(GF)GBcA|B2cde=f|d2B2cA|G3:|\
^cde|=f2efge|^c2cAde|=f2(e/2f/2)gf(e/2d/2)|d3ddB|\
(GF)GBcA|B2cde=f|d2B2cA|G3|]

